X:501
T: ACH GOTTES SEGEN UEBER DIR
N: F0952
O: Europa, Mitteleuropa, Deutschland
R: Liebes - Lied
M: 6/8
L: 1/8
K: C
E | C2B,A,2G, | C2DE2
C | D2CD2C | F3E2
E | D2CB,2C | D2CB,2
C | B,2CB,2C | D3Cz

